X:1
T:Title
%%score ( 1 2 ) ( 3 4 )
L:1/8
Q:1/4=105
M:2/4
K:D
V:1 treble nm="Grand Piano, Unnamed-000"
V:2 treble 
V:3 bass nm="Choir Pad, Holy Hill"
V:4 bass 
V:1
 D2 F2 | A2 A2- | A[CA] [Dd]2 | [Gc]2 [Fd]2- | [Fd][FA] [Fd]2 | [Ec]2 [Dd]2 | A2 GF | ED [CA]2- | %8
w: By~William~Henry~Pontius,~circa~1905 *||||||||
 [CA][EA] [EA]2 | [=Fc]2 [^Fc]2- | [Fc][=Fc] [^Fc]2 | [Ee]2 [Ee]2- | [Ee][CA] [Dd]2 | [DA]2 [DB]2 | %14
w: ||||||
 [DA]2 AG | FE D2- | D4- | D2 z2 |] %18
w: ||||
V:2
 x4 | x4 | x4 | x4 | x4 | x4 | x4 | x4 | x4 | x4 | x4 | x4 | x4 | x4 | z2 C2 | C2 z2 | x4 | x4 |] %18
V:3
 D,2 F,2 | A,2 A,2- | A,[G,A,] [F,A,]2 | [E,A,]2 [D,A,]2- | [D,A,][D,A,] [D,A,]2 | %5
 [E,A,]2 [F,A,]2 | A,2 G,F, | E,D, [A,,E,]2- | [A,,E,][A,C] [A,C]2 | [^G,B,]2 [F,A,]2- | %10
 [F,A,][C,^G,] [F,A,]2 | [^G,B,]2 [A,C]2- | [A,C][G,A,] [F,A,]2 | [F,A,]2 G,2 | [F,A,]2 [E,A,]2 | %15
 A,G, [D,F,]2- | [D,F,]4- | [D,F,]2 z2 |] %18
V:4
 x4 | x4 | x4 | x4 | x4 | x4 | x4 | x4 | x4 | x4 | x4 | x4 | x4 | x4 | x4 | A,,2 z2 | x4 | x4 |] %18

